symbols-de/shields/motorway_9x2_z18.svg

<?xml version="1.0" encoding="UTF-8" standalone="no"?>
<svg
   xmlns:dc="http://purl.org/dc/elements/1.1/"
   xmlns:cc="http://creativecommons.org/ns#"
   xmlns:rdf="http://www.w3.org/1999/02/22-rdf-syntax-ns#"
   xmlns:svg="http://www.w3.org/2000/svg"
   xmlns="http://www.w3.org/2000/svg"
   xmlns:sodipodi="http://sodipodi.sourceforge.net/DTD/sodipodi-0.dtd"
   xmlns:inkscape="http://www.inkscape.org/namespaces/inkscape"
   width="100%"
   height="100%"
   viewBox="0 0 74.0 28.0"
   id="svg2"
   version="1.1"
   inkscape:version="0.91 r13725"
   sodipodi:docname="autobahn_9x2_z18.svg">
  <metadata
     id="metadata9">
    <rdf:RDF>
      <cc:Work
         rdf:about="">
        <dc:format>image/svg+xml</dc:format>
        <dc:type
           rdf:resource="http://purl.org/dc/dcmitype/StillImage" />
        <dc:title></dc:title>
      </cc:Work>
    </rdf:RDF>
  </metadata>
  <defs
     id="defs7" />
  <sodipodi:namedview
     pagecolor="#ffffff"
     bordercolor="#666666"
     borderopacity="1"
     objecttolerance="10"
     gridtolerance="10"
     guidetolerance="10"
     inkscape:pageopacity="0"
     inkscape:pageshadow="2"
     inkscape:window-width="1082"
     inkscape:window-height="747"
     id="namedview5"
     showgrid="false"
     inkscape:zoom="4.7702703"
     inkscape:cx="37"
     inkscape:cy="14"
     inkscape:window-x="239"
     inkscape:window-y="180"
     inkscape:window-maximized="0"
     inkscape:current-layer="svg2" />
  <path
     style="fill:#365eaf;fill-opacity:1;stroke:#0528a2;stroke-width:1;stroke-miterlimit:4;stroke-dasharray:none;stroke-opacity:1"
     d="m 37,0.50000107 c -0.523295,0 -0.78418,0.003888 -0.78418,0.0137592 L 1.6790133,2.5910342 c -0.78495055,0.099608 -1.17901329,0.2501755 -1.17901329,0.449388 0,7.3063858 0,14.6127708 0,21.9191548 0,0.199213 0.39406274,0.349785 1.17901329,0.449388 L 36.21582,27.48624 c 0,0.0099 0.260892,0.01376 0.78418,0.01376 0.523299,0 0.78418,-0.0039 0.78418,-0.01376 l 34.536809,-2.077275 c 0.784949,-0.09961 1.179013,-0.250176 1.179013,-0.449388 0,-7.306386 0,-14.612769 0,-21.9191548 0,-0.1992125 -0.394064,-0.349785 -1.179013,-0.449388 L 37.78418,0.51375919 c 0,-0.009936 -0.26089,-0.0137592 -0.78418,-0.0137592 z"
     id="path6"
     inkscape:connector-curvature="0"
     sodipodi:nodetypes="sccccccsccccccs" />
</svg>

<?xml version="1.0" encoding="UTF-8"?>
<svg xmlns="http://www.w3.org/2000/svg" xmlns:xlink="http://www.w3.org/1999/xlink" width="72pt" height="36pt" viewBox="0 0 72 36" version="1.1">
<g id="surface1">
<path style="fill-rule:nonzero;fill:rgb(21.176471%,36.862745%,68.627451%);fill-opacity:1;stroke-width:1;stroke-linecap:butt;stroke-linejoin:miter;stroke:rgb(1.960784%,15.686275%,63.529412%);stroke-opacity:1;stroke-miterlimit:4;" d="M 37 0.501302 C 36.478082 0.501302 36.217122 0.50434 36.217122 0.513455 L 1.678168 2.59158 C 0.895291 2.69184 0.501845 2.840712 0.501845 3.041233 C 0.501845 10.34809 0.501845 17.65191 0.501845 24.958767 C 0.501845 25.159288 0.895291 25.30816 1.678168 25.40842 L 36.217122 27.486545 C 36.217122 27.49566 36.478082 27.498698 37 27.498698 C 37.521918 27.498698 37.782878 27.49566 37.782878 27.486545 L 72.321832 25.40842 C 73.104709 25.30816 73.498155 25.159288 73.498155 24.958767 C 73.498155 17.65191 73.498155 10.34809 73.498155 3.041233 C 73.498155 2.840712 73.104709 2.69184 72.321832 2.59158 L 37.782878 0.513455 C 37.782878 0.50434 37.521918 0.501302 37 0.501302 Z M 37 0.501302 " transform="matrix(0.972973,0,0,1.285714,0,0)"/>
</g>
</svg>
